X: 3
T: Reel de Bergerville
R: reel
M: C|
L: 1/8
K: Bm
|:\
"Bm"B3B BFBc | dcde f2 d2 | B3B BFBc |\
[1,3 "F#m"dedc "Bm"B2F2 :|2,4 "F#m"dedc "Bm"B4 :|
|:\
"D"A2BA F2 (3ABc | dcde f2 d2 | "D"A2 BA \
[1,3 FDFA | dAFD "A7"E3B :|[2,4 FAdf | "A7"edce "D"d4 :|


